X:1
T:Kitty Lie Over
C:Trad.
D:Mick O'Brien & Caoimhín Ó Raghallaigh: Kitty Lie Over (2003)
R:Jig
M:6/8
Q:150
K:D
|: AFD DFA | Add ABA | ABA FFF | GFG EFG |
   AFD DFA | Add ABA | ABA F2E |1 EDD d2B :|2 EDD D2e
|: fdd ede | fdc d2e | fff def | gge efg
           |1 fed B2A | AdF G2B | ABA F2E | EDD D2e :|
	   [2 afd B2A | AdF G2B | ABA F2E | EDD d2B |

